X:1
T:Singing, Speaking, Praying
T:Charles Hutchinson Gabriel
T:Singing, Speaking, Praying
T:Public Domain
T:Public Domain
C:Charles Hutchinson Gabriel
Z:Public Domain
%%score ( 1 2 ) ( 3 4 )
L:1/8
M:4/4
K:D
V:1 treble 
V:2 treble 
V:3 bass 
V:4 bass 
V:1
 [FA]3 [DF] [DF]2 [DF]2 | [DF]4 D2 z2 | D2 [DF]2 [FA]2 [Fd]2 | [Gc]6 z2 | [GB]3 [CE] [CE]2 [DF]2 | %5
w: 1.~Sing a song of|Je- sus,|py be the strain,|the|har- mo- nies of|
w: 2.~Speak a word for|Je- sus,|ter pre- cious seed,|may|some poor wand- er-|
w: 3.~Say a prayer to|Je- sus,|will al- ways hear;|each|pre- cious blood- bought|
w: 4.~Sing- ing, speak- ing,|pray- ing,|the Lord of love,|He|comes to take you|
 [EG]2 [EG]2 ([EG]2 [CA]2) | [Ec]3 [GB] [FA]2 [EG]2 | [DF]6 z2 || %8
w: Heaven Fill the *|earth a- gain. Sing|a|
w: er To the *|Sav- ior lead. Speak|a|
w: soul, He is *|ev- er near. Say|a|
w: home To His *|Heav’n a- bove. Sing-|ing,|
"^Refrain" [FA]3 [DF] [DF]2 [DF]2 | [DF]4 D2 z2 | F2 F2 F2 A2 | G2 G2 G2 z2 | %12
w: song for Je- sus,|Hap- py,|py be the strain,|har- mo- nies|
w: word for Je- sus,|Scat- ter,|ter pre- cious seed,|some poor wand-|
w: prayer to Je- sus,|He will|ways, al- ways hear,|pre- cious blood-|
w: speak- ing, pray- ing,|For the|the Lord of love,|comes to take|
 [GB]2 [Bd]2 [Ac]2 [GB]2 | [FA]3 [^E^G] ([FA]2 [DF]2) | [CE]2 [CA]2 [EG]2 [CE]2 | D6 z2 |] %16
w: Heaven Fill the earth|a- gain. * *|||
w: er To the Sav-|ior lead. * *|||
w: soul, He is ev-|er near. * *|||
w: home To His Heav’n|a- bove. * *|||
V:2
 x8 | x4 D2 x2 | D2 x6 | x8 | x8 | x8 | x8 | x8 || x8 | x4 D2 x2 | A4 d4 | B6 x2 | x8 | x8 | x8 | %15
w: |Hap-|Till|||||||hap-|Till the|of||||
w: |Scat-|It|||||||scat-|It may|er-||||
w: |He|To|||||||al-|To each|bought||||
w: |For|Till|||||||Lord,|Till He|you||||
 D6 x2 |] %16
w: |
w: |
w: |
w: |
V:3
 [D,D]3 [D,A,] [D,A,]2 [D,A,]2 | [D,A,]4 [D,F,]2 z2 | [D,F,]2 [D,A,]2 [D,D]2 [D,A,]2 | [E,A,]6 z2 | %4
 [A,,C]3 [A,,A,] [A,,A,]2 [A,,A,]2 | [A,,A,]2 [A,,A,]2 [A,,A,]4 | %6
 [A,,A,]3 [A,,A,] [A,,A,]2 [A,,A,]2 | [D,A,]6 z2 || [D,D]3 [D,A,] [D,A,]2 [D,A,]2 | %9
 [D,A,]4 [D,F,]2 z2 | [D,D]2 [D,D]2 [D,D]2 [F,D]2 | [G,D]2 [G,D]2 [G,D]2 z2 | %12
 [G,D]2 [G,D]2 [G,D]2 [G,D]2 | [D,D]3 [D,D] (D2 A,2) | [A,,A,]2 [A,,E,]2 [A,,A,]2 [A,,G,]2 | %15
 [D,F,]6 z2 |] %16
V:4
 x8 | x8 | x8 | x8 | x8 | x8 | x8 | x8 || x8 | x8 | x8 | x8 | x8 | x4 D,4 | x8 | x8 |] %16

